X:1
T:Tamil Nadu, 87.87 D
T:Tamil Nadu, 87.87 D
T:Barney Elliott Warren, 1897
T:Public Domain Courtesy of the Cyber Hymnal™
C:Barney Elliott Warren, 1897
Z:Public Domain
Z:Courtesy of the Cyber Hymnal™
%%score ( 1 2 ) 3
L:1/8
Q:1/4=103
M:4/4
K:Bb
V:1 treble 
V:2 treble 
V:3 bass 
V:1
 [Fd]>[Fd] | [Fd]2 [DB]2 F2 D2 | [EG]2 [DF]4 [Ec]>[Ec] | [=Ec]2 [EG]2 [FA]2 F2 | [Fd]6 [Fd]>[Fd] | %5
 [Fd]2 [DB]2 [DF]2 D2 | [EG]2 [DF]4 [Ec]>[Ec] | [=Ec]2 [EG]2 [FA]2 [_EF]2 | [DB]6 [Fd]>[Ec] | %9
 [DB]4- [DB]>[CA] [DB]>D | [EG]2 [DF]4 [Fc]>[Fc] | c4- [Fc]>[FG] [FA]>F | [Fd]6 [Fd]>[Fd] | %13
 [Fd]4- [Fd]>[DB] [Fc]>[FB] | [GB]2 [Ge]4 [=Ed]>[Ec] | [FB]3 [DF] [Fd]3 [Ec] | [DB]6 |] %17
V:2
 x2 | x6 D2 | x8 | x6 F2 | x8 | x6 D2 | x8 | x8 | x8 | x15/2 D/ | x8 | =E2 E2 x3/2 F/ x2 | x8 | %13
 x8 | x8 | x8 | x6 |] %17
V:3
 [B,,B,]>[B,,B,] | [B,,B,]2 [B,,B,]2 [B,,B,]2 [B,,B,]2 | [B,,B,]2 [B,,B,]4 [E,G,]>[E,G,] | %3
 [C,G,]2 [C,C]2 [F,C]2 [F,A,]2 | [B,,B,]6 [B,,B,]>[B,,B,] | [B,,B,]2 [B,,B,]2 [B,,B,]2 [B,,B,]2 | %6
 [B,,B,]2 [B,,B,]4 [E,G,]>[E,G,] | [C,G,]2 [C,C]2 [F,C]2 [F,A,]2 | [B,,B,]6 z2 | %9
 [B,,F,]2 [B,,F,]2 [B,,F,]>[B,,F,] [B,,F,]>[B,,F,] | [B,,B,]2 [B,,B,]4 z2 | %11
 [C,G,]2 [C,G,]2 [F,A,]>[F,A,] [F,C]>[F,A,] | [B,,B,]6 z2 | %13
 [B,,B,]2 [B,,B,]2 [B,,B,]>[B,,B,] [C,A,]>[D,B,] | [E,B,]2 [E,B,]4 [G,B,]>[G,B,] | %15
 [F,D]3 [F,B,] [F,B,]3 [F,A,] | [B,,F,B,]6 |] %17

